src/pos-icons/crane.svg

<svg height="24" viewBox="0 0 24 24" width="24" xmlns="http://www.w3.org/2000/svg"><path d="m20 6v-1a1 1 0 0 0 -1-1h-10v-1h-3v1h-1v2h1v9h-1v-2h-2v2h-1v2h1v4h2v-4h5v4h2v-1.08-2.92h1v-2h-1v-2h-2v2h-1v-9h8v4.62c-.47.17-.81.61-.81 1.14 0 .44.24.84.61 1.06v1.18h.62c.34 0 .61.28.61.62s-.27.62-.61.62c-.22 0-.42-.12-.53-.31-.18-.29-.55-.39-.84-.22-.3.16-.4.54-.23.84.33.56.94.92 1.6.92 1.01 0 1.84-.83 1.84-1.85 0-.78-.5-1.48-1.23-1.74v-.06c.38-.22.62-.62.62-1.06 0-.46-.27-.85-.65-1.06v-4.7zm-12 7.66-1 1v-1.42l1-1zm0-2.95-1 1v-1.42l1-1zm-1-2v-1.42l1-1v1.42z"/></svg>

<?xml version="1.0" encoding="UTF-8"?><!DOCTYPE svg PUBLIC "-//W3C//DTD SVG 1.1//EN" "http://www.w3.org/Graphics/SVG/1.1/DTD/svg11.dtd"><svg xmlns="http://www.w3.org/2000/svg" xmlns:xlink="http://www.w3.org/1999/xlink" version="1.1" id="mdi-crane" width="24" height="24" viewBox="0 0 24 24"><path d="M20,6V5A1,1 0 0,0 19,4H9V3H6V4H5V6H6V15H5V13H3V15H2V17H3V21H5V17H10V21H12V19.92L12,17H13V15H12V13H10V15H9V6H17V10.62C16.53,10.79 16.19,11.23 16.19,11.76C16.19,12.2 16.43,12.6 16.8,12.82V14H17.42C17.76,14 18.03,14.28 18.03,14.62C18.03,14.96 17.76,15.24 17.42,15.24C17.2,15.24 17,15.12 16.89,14.93C16.71,14.64 16.34,14.54 16.05,14.71C15.75,14.87 15.65,15.25 15.82,15.55C16.15,16.11 16.76,16.47 17.42,16.47C18.43,16.47 19.26,15.64 19.26,14.62C19.26,13.84 18.76,13.14 18.03,12.88V12.82C18.41,12.6 18.65,12.2 18.65,11.76C18.65,11.3 18.38,10.91 18,10.7V6H20M8,13.66L7,14.66V13.24L8,12.24V13.66M8,10.71L7,11.71V10.29L8,9.29V10.71M7,8.71V7.29L8,6.29V7.71L7,8.71Z" /></svg>
